X:0
T: Prelude No. 1
C: J. S. Bach
M:4/4
L:1/16
Q:1/4=100
V: upper
V: middle
V: lower
K:C
V: upper
z2 Gc eGce z2 Gc eGce | z2 Ad fAdf z2 Ad fAdf | 
V: middle
z E7 z E7 | z D7 z D7 |
V: lower
C8 C8 | C8 C8 |
V: upper
z2 Gd fGdf z2 Gd fGdf | z2 Ae aAea z2 Ae aAea |]
V: middle
z D7 z D7 | z E7 z E7 |]
V: lower
B,8 B,8 | C8 C8 |]
